school/img/country/DK.svg

<svg width="13" height="12" viewBox="0 0 13 12" fill="none" xmlns="http://www.w3.org/2000/svg">
<rect x="0.25" y="0.25" width="12.5" height="11.5" rx="1.75" fill="white" stroke="#F5F5F5" stroke-width="0.5"/>
<mask id="mask0" mask-type="alpha" maskUnits="userSpaceOnUse" x="0" y="0" width="13" height="12">
<rect x="0.25" y="0.25" width="12.5" height="11.5" rx="1.75" fill="white" stroke="white" stroke-width="0.5"/>
</mask>
<g mask="url(#mask0)">
<path fill-rule="evenodd" clip-rule="evenodd" d="M2 0C0.895431 0 0 0.895431 0 2V4.8H3.71429V0H2ZM5.57143 0V4.8H13V2C13 0.895431 12.1046 0 11 0H5.57143ZM13 7.2H5.57143V12H11C12.1046 12 13 11.1046 13 10V7.2ZM3.71429 12V7.2H0V10C0 11.1046 0.89543 12 2 12H3.71429Z" fill="#EF264D"/>
</g>
</svg>

<svg width="13" height="12" fill="none" xmlns="http://www.w3.org/2000/svg"><rect x=".25" y=".25" width="12.5" height="11.5" rx="1.75" fill="#fff" stroke="#F5F5F5" stroke-width=".5"/><mask id="a" maskUnits="userSpaceOnUse" x="0" y="0" width="13" height="12"><rect x=".25" y=".25" width="12.5" height="11.5" rx="1.75" fill="#fff" stroke="#fff" stroke-width=".5"/></mask><g mask="url(#a)"><path fill-rule="evenodd" clip-rule="evenodd" d="M2 0a2 2 0 00-2 2v2.8h3.714V0H2zm3.571 0v4.8H13V2a2 2 0 00-2-2H5.571zM13 7.2H5.571V12H11a2 2 0 002-2V7.2zM3.714 12V7.2H0V10a2 2 0 002 2h1.714z" fill="#EF264D"/></g></svg>
